usr/share/icons/biglinux-icons-material/scalable/apps/aegisub.svg

<?xml version="1.0" encoding="UTF-8" standalone="no"?>
<svg
   width="24"
   height="24"
   viewBox="0 0 6.349875 6.349875"
   version="1.1"
   id="svg4364"
   sodipodi:docname="aegisub.svg"
   xml:space="preserve"
   inkscape:version="1.2.2 (b0a8486541, 2022-12-01)"
   xmlns:inkscape="http://www.inkscape.org/namespaces/inkscape"
   xmlns:sodipodi="http://sodipodi.sourceforge.net/DTD/sodipodi-0.dtd"
   xmlns="http://www.w3.org/2000/svg"
   xmlns:svg="http://www.w3.org/2000/svg"><defs
     id="defs4368"><radialGradient
       fx="0"
       fy="0"
       cx="0"
       cy="0"
       r="1"
       gradientUnits="userSpaceOnUse"
       gradientTransform="matrix(0,5.8207185,-5.8207185,0,3.174814,0.2645736)"
       spreadMethod="pad"
       id="radialGradient3666-6"><stop
         style="stop-color:#fbfbfb;stop-opacity:1;"
         offset="0"
         id="stop3662-7" /><stop
         style="stop-color:#ebebeb;stop-opacity:1;"
         offset="1"
         id="stop3664-5" /></radialGradient></defs><sodipodi:namedview
     id="namedview4366"
     pagecolor="#ffffff"
     bordercolor="#000000"
     borderopacity="0.25"
     inkscape:showpageshadow="2"
     inkscape:pageopacity="0.0"
     inkscape:pagecheckerboard="0"
     inkscape:deskcolor="#d1d1d1"
     showgrid="false"
     inkscape:zoom="19.312854"
     inkscape:cx="17.501297"
     inkscape:cy="14.342779"
     inkscape:window-width="2560"
     inkscape:window-height="998"
     inkscape:window-x="1680"
     inkscape:window-y="0"
     inkscape:window-maximized="1"
     inkscape:current-layer="svg4364" /><path
     d="m 2.538064,0.2949077 c 0.031749,0 0.062088,-0.00423 0.091015,-0.012347 0.380287,-0.025047 0.7605739,-0.023636 1.1398025,0.00282 0.3443044,0.027516 0.6776728,0.1019508 1.0004581,0.2243622 0.5358589,0.2204818 0.9023877,0.6035909 1.1009977,1.1479163 0.1114756,0.3280768 0.1788548,0.6656785 0.1996683,1.0113939 0.027516,0.4356718 0.017991,0.8695798 -0.030338,1.3038408 -0.037041,0.304442 -0.1157088,0.596536 -0.237062,0.877694 -0.224715,0.487882 -0.5898328,0.824073 -1.0939423,1.008572 C 4.3005075,5.9970929 3.8803574,6.0701169 3.4475076,6.0771719 2.9624477,6.1032819 2.4816211,6.0658819 2.0050277,5.9681659 1.129803,5.7737889 0.5883,5.2393419 0.384398,4.3655279 0.297618,3.9728939 0.257401,3.5746159 0.265867,3.1721049 0.256367,2.7448989 0.301497,2.3219266 0.40239,1.9056571 0.617227,1.0900509 1.135447,0.5841776 1.9566981,0.3887425 2.1482527,0.3418245 2.3426294,0.3100745 2.5380644,0.2949055 Z"
     style="fill:url(#radialGradient3666-6);fill-rule:evenodd;stroke:none;stroke-width:0.352683;stroke-dasharray:none"
     id="path3668" /><path
     id="path334"
     style="opacity:0.727273;mix-blend-mode:normal;fill:#cccccc;fill-opacity:1;stroke-width:0.637963;paint-order:stroke fill markers"
     d="M 4.3259442,0.3673383 4.2981562,1.414249 c -0.014536,0.5476262 0.4365716,1.0006442 1.0110432,1.0160541 l 0.7469601,0.020037 C 6.0291776,2.2017202 5.978734,1.957072 5.9045277,1.7166547 5.7205076,1.1643214 5.3641304,0.7691765 4.8343432,0.5332393 4.6680767,0.4646981 4.4986843,0.4100555 4.3259442,0.3673383 Z" /><g
     transform="matrix(0.43752584,0,0,0.43752584,-0.51149116,-0.48673572)"
     id="g5945"><path
       d="m 12.151,10.747 c -1.027,-1.11 -2.302,-1.92 -3.73,-1.92 -1.43,0 -2.784,0.929 -3.726,1.92 -0.107,0.124 -0.107,0.27 0,0.395 1.02,1.092 2.272,1.918 3.725,1.918 1.453,0 2.797,-0.922 3.737,-1.918 0.106,-0.125 0.106,-0.271 0,-0.395"
       fill="#e46d6d"
       id="path5939" /><circle
       cx="8.4200001"
       cy="10.944"
       r="1.693"
       fill="#50b4ec"
       id="circle5941" /><circle
       cx="8.4200001"
       cy="10.944"
       r="0.847"
       fill="#525252"
       id="circle5943" /></g></svg>

<svg xmlns="http://www.w3.org/2000/svg" xml:space="preserve" width="24" height="24" viewBox="0 0 6.35 6.35"><defs><radialGradient id="a" cx="0" cy="0" r="1" fx="0" fy="0" gradientTransform="rotate(90 1.455 1.72) scale(5.82072)" gradientUnits="userSpaceOnUse" spreadMethod="pad"><stop offset="0" style="stop-color:#fbfbfb;stop-opacity:1"/><stop offset="1" style="stop-color:#ebebeb;stop-opacity:1"/></radialGradient></defs><path d="M2.538.295A.335.335 0 0 0 2.63.283c.38-.025.76-.024 1.14.002a3.62 3.62 0 0 1 1 .225c.536.22.903.603 1.101 1.148.112.328.18.665.2 1.011.028.436.018.87-.03 1.304a3.166 3.166 0 0 1-.237.878c-.225.487-.59.824-1.094 1.008a4.125 4.125 0 0 1-1.261.218 5.644 5.644 0 0 1-1.443-.109C1.13 5.774.588 5.24.385 4.366a5.025 5.025 0 0 1-.12-1.194c-.009-.427.036-.85.137-1.266C.617 1.09 1.135.584 1.957.389c.191-.047.386-.079.581-.094Z" style="fill:url(#a);fill-rule:evenodd;stroke:none;stroke-width:.352683;stroke-dasharray:none"/><path d="m4.326.367-.028 1.047c-.014.548.437 1 1.011 1.016l.747.02a3.914 3.914 0 0 0-.151-.733A1.898 1.898 0 0 0 4.835.533a3.594 3.594 0 0 0-.51-.166Z" style="opacity:.727273;mix-blend-mode:normal;fill:#ccc;fill-opacity:1;stroke-width:.637963;paint-order:stroke fill markers"/><g transform="matrix(.43753 0 0 .43753 -.511 -.487)"><path fill="#e46d6d" d="M12.151 10.747c-1.027-1.11-2.302-1.92-3.73-1.92-1.43 0-2.784.929-3.726 1.92-.107.124-.107.27 0 .395 1.02 1.092 2.272 1.918 3.725 1.918 1.453 0 2.797-.922 3.737-1.918.106-.125.106-.271 0-.395"/><circle cx="8.42" cy="10.944" r="1.693" fill="#50b4ec"/><circle cx="8.42" cy="10.944" r=".847" fill="#525252"/></g></svg>
